img/icon-updated-1.svg

<svg fill="none" height="17" viewBox="0 0 16 17" width="16" xmlns="http://www.w3.org/2000/svg"><path clip-rule="evenodd" d="m1.5 8.56104c0-1.72391.68482-3.37721 1.90381-4.5962 1.21898-1.21899 2.87228-1.9038 4.59619-1.9038s3.3772.68481 4.5962 1.9038 1.9038 2.87229 1.9038 4.5962c0 1.72386-.6848 3.37716-1.9038 4.59616s-2.87229 1.9038-4.5962 1.9038-3.37721-.6848-4.59619-1.9038c-1.21899-1.219-1.90381-2.8723-1.90381-4.59616zm6.5-8.000005c-2.12173 0-4.15656.842855-5.65685 2.343145-1.500295 1.50029-2.34315 3.53512-2.34315 5.65686 0 2.12176.842855 4.15656 2.34315 5.65686 1.50029 1.5003 3.53512 2.3431 5.65685 2.3431 2.1217 0 4.1566-.8428 5.6569-2.3431 1.5002-1.5003 2.3431-3.5351 2.3431-5.65686 0-2.12174-.8429-4.15657-2.3431-5.65686-1.5003-1.50029-3.5352-2.343145-5.6569-2.343145zm.5 4.750005c0-.19892-.07902-.38968-.21967-.53034-.14065-.14065-.33142-.21966-.53033-.21966s-.38968.07901-.53033.21966c-.14065.14066-.21967.33142-.21967.53034v3.5c.00003.14978.04492.29611.12886.42016.08395.12405.20311.22012.34214.27584l2.5.99996c.1831.0669.3851.0599.5631-.0196s.3181-.2252.3905-.4062c.0724-.18103.0715-.38312-.0025-.56347s-.2154-.32479-.3941-.40269l-2.028-.812z" fill="#000" fill-rule="evenodd"/></svg>

<svg width="16" height="17" viewBox="0 0 16 17" fill="none" xmlns="http://www.w3.org/2000/svg">
<path fill-rule="evenodd" clip-rule="evenodd" d="M1.5 8.56104C1.5 6.83713 2.18482 5.18383 3.40381 3.96484C4.62279 2.74585 6.27609 2.06104 8 2.06104C9.72391 2.06104 11.3772 2.74585 12.5962 3.96484C13.8152 5.18383 14.5 6.83713 14.5 8.56104C14.5 10.2849 13.8152 11.9382 12.5962 13.1572C11.3772 14.3762 9.72391 15.061 8 15.061C6.27609 15.061 4.62279 14.3762 3.40381 13.1572C2.18482 11.9382 1.5 10.2849 1.5 8.56104ZM8 0.561035C5.87827 0.561035 3.84344 1.40389 2.34315 2.90418C0.842855 4.40447 0 6.4393 0 8.56104C0 10.6828 0.842855 12.7176 2.34315 14.2179C3.84344 15.7182 5.87827 16.561 8 16.561C10.1217 16.561 12.1566 15.7182 13.6569 14.2179C15.1571 12.7176 16 10.6828 16 8.56104C16 6.4393 15.1571 4.40447 13.6569 2.90418C12.1566 1.40389 10.1217 0.561035 8 0.561035V0.561035ZM8.5 5.31104C8.5 5.11212 8.42098 4.92136 8.28033 4.7807C8.13968 4.64005 7.94891 4.56104 7.75 4.56104C7.55109 4.56104 7.36032 4.64005 7.21967 4.7807C7.07902 4.92136 7 5.11212 7 5.31104V8.81104C7.00003 8.96082 7.04492 9.10715 7.12886 9.2312C7.21281 9.35525 7.33197 9.45132 7.471 9.50704L9.971 10.507C10.1541 10.5739 10.3561 10.5669 10.5341 10.4874C10.7121 10.4079 10.8522 10.2622 10.9246 10.0812C10.997 9.90017 10.9961 9.69808 10.9221 9.51773C10.8481 9.33738 10.7067 9.19294 10.528 9.11504L8.5 8.30304V5.31104Z" fill="black"/>
</svg>
